X:2695
T:Humours of Castlefin, The
O:england
R:reel
H:Also played with double parts
D:Noel Hill & Tony MacMahon: I gCnoc na Grai
D:Mary MacNamara: Traditional Music from East Clare
M:C|
K:Edor
BE~E2 BEGB|AD~D2 FGAd|BE~E2 BFAF|1 GBAF EFGA:|2 GBAF E2FA||
B2eB egfe|defa afed|Beed efgb|agfa geed|
BeeB egfe|defa afdf|efga bagf|egfd e2dc||
